svgs/sharp-light/signal-bars.svg

<svg xmlns="http://www.w3.org/2000/svg" viewBox="0 0 640 512"><!--! Font Awesome Pro 6.6.0 by @fontawesome - https://fontawesome.com License - https://fontawesome.com/license (Commercial License) Copyright 2024 Fonticons, Inc. --><path d="M544 32l0 448 32 0 0-448-32 0zM512 0l32 0 32 0 32 0 0 32 0 448 0 32-32 0-32 0-32 0 0-32 0-448 0-32zM384 160l0 320 32 0 0-320-32 0zm-32-32l32 0 32 0 32 0 0 32 0 320 0 32-32 0-32 0-32 0 0-32 0-320 0-32zM256 288l-32 0 0 192 32 0 0-192zm-32-32l32 0 32 0 0 32 0 192 0 32-32 0-32 0-32 0 0-32 0-192 0-32 32 0zM64 416l0 64 32 0 0-64-32 0zM32 384l32 0 32 0 32 0 0 32 0 64 0 32-32 0-32 0-32 0 0-32 0-64 0-32z"/></svg>

<svg xmlns="http://www.w3.org/2000/svg" viewBox="0 0 640 512"><!--! Font Awesome Pro 6.5.2 by @fontawesome - https://fontawesome.com License - https://fontawesome.com/license (Commercial License) Copyright 2024 Fonticons, Inc. --><path d="M544 32V480h32V32H544zM512 0h32 32 32V32 480v32H576 544 512V480 32 0zM384 160V480h32V160H384zm-32-32h32 32 32v32V480v32H416 384 352V480 160 128zM256 288H224V480h32V288zm-32-32h32 32v32V480v32H256 224 192V480 288 256h32zM64 416v64H96V416H64zM32 384H64 96h32v32 64 32H96 64 32V480 416 384z"/></svg>
